!!!COM: Scarlatti, Domenico
!!!CDT: 1685///-1757///
!!!OTL: Sonata in C Major, K.49, L.301
!!!SCT: K. 49
!!!SCT: L. 301
!!!OMD: Presto
**kern	**kern	**dynam
*staff2	*staff1	*staff1/2
*Icemba	*Icemba	*Icemba
*>[A,A1,A,B,B1,B,B2]	*>[A,A1,A,B,B1,B,B2]	*>[A,A1,A,B,B1,B,B2]
*>norep[A,B,B2]	*>norep[A,B,B2]	*>norep[A,B,B2]
*>A	*>A	*>A
*clefF4	*clefG2	*clefG2
*k[]	*k[]	*k[]
*C:	*C:	*C:
*M2/2	*M2/2	*M2/2
*MM208	*MM208	*MM208
=1-	=1-	=1-
1C	4r	f
.	(8gg\L	.
.	8ee\J	.
.	4cc\)	.
.	(8g/L	.
.	8e/J	.
=2	=2	=2
2.C/	4c/)	.
.	(8e/L	.
.	8g/J	.
.	8cc\L	.
.	8g\	.
4C/	8ee\	.
.	8cc\J	.
=3	=3	=3
4FF/	8b\L	.
.	8a\	.
4F\	8gg#\	.
.	8aa\J	.
4G'\	4cc'\)	.
4GG'/	4b'\	.
=4	=4	=4
2C/	(4b\	>
.	4.cc\)	)
4E\	.	]
.	(8ff'\L	p
4C/	8ee\	.
.	8cc\J	.
=5	=5	=5
4FF/	8b\L	.
.	8a\	.
4F\	8gg#\	.
.	8aa\J	.
4G'\	4cc'\)	.
4GG'/	4b'\	.
=6	=6	=6
(2C/	(4b\	.
.	2cc\)	.
4E'\)	.	.
4C'/	4ee'\	.
=7	=7	=7
.	(ggq/	.
2.D\	(12ff\L)	mf
.	12ee\	.
.	12dd\J	.
.	12cc\L	.
.	12b\	.
.	12a\J	.
.	4g'/)	.
4GG'/	4ff'\	p
=8	=8	=8
2.C/	(4dd\	.
.	4dd#\	.
.	4ee\)	.
4e'\	4cc'\	mf
=9	=9	=9
(12f\L	(4a/	.
12e\	.	.
12d\J	.	.
12c\L	4dd\	.
12B\	.	.
12A\J	.	.
4G'\)	4g'/)	.
4F'\	4b'\	.
=10	=10	=10
.	(4b\	.
*^	*	*
2r	(1E	.	.
.	.	2cc\)	.
[2c/	.	.	.
.	.	4ee'\	.
=11	=11	=11	=11
.	.	ggq/	.
2c/]	2D\	12ff\L	.
.	.	12ee\	.
.	.	12dd\J	.
.	.	12cc\L	.
.	.	12b\	.
.	.	12a\J	.
2B/	2G\	4g'/	.
.	.	4f'/	.
*v	*v	*	*
=12	=12	=12
2C/	4d/	>
.	4d#/	)
2c\)	4e/	]
.	4ee\	p
=13	=13	=13
.	(aaq/	.
*^	*	*
2r	(1B	(12gg\L)	<
.	.	12ff\	(
.	.	12ee\J	(
.	.	8dd\L	(
.	.	8cc\J	(
[2g/	.	4cc#\	(
.	.	4dd\)	(
=14	=14	=14	=14
2g/]	1A	12gg\L	(
.	.	12ff#\	(
.	.	12ee\J	(
.	.	12dd\L	(
.	.	12cc\	(
.	.	12b\J	(
2f#/	.	4b\	(
.	.	4cc\	(
*v	*v	*	*
=15	=15	=15
2G\) 2g\	8gg\L	(
.	16ff#\L	(
.	16ee\JJ	(
.	16dd\LL	(
.	16cc\	(
.	16b\	(
.	16a\JJ	(
(2GG/	4a#/	(
.	4b\	(
=16	=16	=16
2C/)	4dd#\	(
.	[4ee\	(
(2C/	16ee\LL]	(
.	16ddn\	(
.	16cc\	(
.	16b\JJ	(
.	8a/L	(
.	8g/J	(
=17	=17	=17
.	gq/	[
2.D\)	4.f#/	f
.	8e/	.
.	4d/	.
*clefG2	*	*
4bb'\	4g'/	mf
=18	=18	=18
(8aa\L	(8f#/L	.
8gg\	8g/	.
8ff#\	8a/	.
8ee\J	8b/J	.
4dd'\)	4cc'\)	.
*clefF4	*	*
4DD/ 4D/	4a'/	.
=19	=19	=19
2.GG/ 2.G/	(12dd\L	.
.	12cc\	.
.	12b\J	.
.	12cc\L	.
.	12b\	.
.	12a\J	.
.	4g'/)	.
.	4g'/	p
*clefG2	*	*
4bb'\	.	.
=20	=20	=20
(8aa\L	(8f#/L	.
8gg\	8g/	.
8ff#\	8a/	.
8ee\J	8b/J	.
4dd'\)	4cc'\)	.
*clefF4	*	*
4DD'/ 4D'/	4a'/	.
=21	=21	=21
2.GG/ 2.G/	(12dd\L	<
.	12cc\	(
.	12b\J	(
.	12cc\L	(
.	12b\	(
.	12a\J	(
.	12b/L	(
.	12a/	(
.	12g/J	(
4BB/	12a/L	(
.	12g/	(
.	12f#/J	[
=22	=22	=22
4C/	12g/L	f
.	12f#/	.
.	12e/J)	.
(4c\	(8dd#\L	.
.	8ee\J	.
4d'\)	4g'/)	.
4D\	4f#'/	.
=23	=23	=23
2.GG/	(4f#/	>
.	4g/	)
.	4d/)	]
*clefG2	*	*
4bb-'\	4g'/	mf
=24	=24	=24
(8aa\L	(8f#/L	.
8gg\	8g/	.
8ff#\	8a/	.
8ee\J	8b-/J	.
4dd\)	4cc'\)	.
*clefF4	*	*
4DD'/ 4D'/	4a'/	.
=25	=25	=25
2.GG/ 2.G/	(12dd\L	.
.	12cc\	.
.	12b-\J	.
.	12cc\L	.
.	12b-\	.
.	12a\J	.
.	4g'/)	.
.	4g'/	p
*clefG2	*	*
4bb-'\	.	.
=26	=26	=26
(8aa\L	(8f#/L	.
8gg\	8g/	.
8ff#\	8a/	.
8ee\J	8b-/J	.
4dd'\)	4cc'\)	.
*clefF4	*	*
4DD'/ 4D'/	4a'/	.
=27	=27	=27
2.GG/ 2.G/	(12dd\L	<
.	12cc\	(
.	12b-\J	(
.	12cc\L	(
.	12b-\	(
.	12a\J	(
.	12b-/L	(
.	12a/	(
.	12g/J	(
4B-\	12a/L	(
.	12g/	(
.	12f/J	(
=28	=28	=28
4C/	12e-/L	(
.	12d/	(
.	12c/J	(
4c\	12cc/L	(
.	12b-/	(
.	12a/J	(
4d'\	4g'/)	(
4D'\	4f#'/	[
=29	=29	=29
4GG/	4.g'/	p
4g\	.	.
.	(16bn/LL	.
.	16a/JJ	.
4e\	[4g/)	.
4c\	16g/LL]	.
.	(16cc/	.
.	16b/	.
.	16a/JJ	<
=30	=30	=30
*^	*	*
2d/	4B\	4g/)	(
.	4G\	16g/LL	(
.	.	(16dd/	(
.	.	16b/	(
.	.	16a/JJ)	(
2e/	4c\	[4g/	(
.	4G\	16g/LL]	(
.	.	(16ee/	(
.	.	16b/	(
.	.	16a/JJ	(
=31	=31	=31	=31
2d/	4B\	[4g/)	(
.	4G\	16g\LL]	(
.	.	(16ff#\	(
.	.	16b\	(
.	.	16a\JJ	(
2e/	4c\	[4g/)	(
.	4G\	16g\LL]	(
.	.	(16gg\	(
.	.	16b\	(
.	.	16a\JJ	[
*v	*v	*	*
=32	=32	=32
2.B\ 2.d\	4g'/)	f
.	4gg'\	.
.	(12ff#\L	.
.	12ee\	.
.	12dd\J	.
4A\ 4c\	12cc\L	.
.	12b\	.
.	12a\J	.
=33	=33	=33
4G\ 4d\	12b\L	.
.	12cc\	.
.	12dd\J	.
(4C/	12cc\L	.
.	12b\	.
.	12a\J	.
4D'/)	12dd\L	.
.	12cc\	.
.	12b\J	.
4DD'/	12a/L	.
.	12g/	.
.	12f#/J)	.
=34	=34	=34
4GG'/	(4.g'/	p
(4g\	.	.
.	8b\)	.
4e\	(4.g/	.
4c\)	.	.
.	8cc\)	.
=35	=35	=35
*^	*	*
2d/	(4B\	(4.g/	<
.	4G\	.	(
.	.	8dd\)	(
2e/	4c\	(4.g/	(
.	4G\	.	(
.	.	8ee\)	(
=36	=36	=36	=36
2d/	4B\	4.g/	(
.	4G\	.	(
.	.	8ff#\	(
2e/	4c\	4.g/	(
.	4G\	.	(
.	.	8gg\	[
*v	*v	*	*
=37	=37	=37
2.B\) 2.d\	4g'/	f
.	4bb'\	.
.	12aa\L	.
.	12gg\	.
.	12ff#\J	.
4A\ (4c\	12ee\L	.
.	12dd\	.
.	12cc\J	.
=38	=38	=38
4G\ 4d\)	12b\L	.
.	12cc\	.
.	12dd\J	.
(4C/	12cc\L	.
.	12b\	.
.	12a\J	.
4D'/)	12dd\L	.
.	12cc\	.
.	12b\J	.
4DD'/	12a/L	.
.	12g/	.
.	12f#/J	.
=39	=39	=39
16r	16g/	.
16GG/LL	16r	.
16BB/	8r	.
16D/JJ	.	.
16G\LL	4r	.
16B\	.	.
16d\	.	.
16g\JJ	.	.
4r	16b\LL	.
.	16dd\J	.
.	8gg'\J	.
4r;	4r;	.
=40	=40	=40
4r	4r	.
.	(ff#q/	.
4c\	4ee'\)	mf
4d\	(12dd\L	.
.	12cc\	.
.	12b\J	.
4D\	12a/L	.
.	12g/	.
.	12f#/J	.
=41	=41	=41
16r	16g/)	<
16GG/LL	16r	(
16BB-/	8r	(
16D/JJ	.	(
16G\LL	4r	(
16B-\	.	(
16d\	.	(
16g\JJ	.	(
4r	16b-\LL	(
.	16dd\J	[
.	8gg'\J	f
4r;	4r;	.
=42	=42	=42
4r	4r	.
.	(ffq/	.
4c\	4ee-'\)	mf
4d\	(12dd\L	.
.	12cc\	.
.	12b-\J	.
4D\	12a/L	.
.	12g/	.
.	12f#/J	.
=43	=43	=43
16r	16g/)	<
16GG/LL	16r	(
16BBn/	8r	(
16D/JJ	.	(
16G\LL	4r	(
16B\	.	(
16d\	.	(
16g\JJ	.	(
4r	16b\LL	(
.	32dd\L	[
.	32gg\JJ	f
.	8bb'\J	.
4r;	4r;	.
=44	=44	=44
*	*^	*
4r	2r	4r	.
4c\ 4e\	.	4ee'\ 4ccc'\	f
4d\	(12bb/L	4dd\	.
.	12aa/	.	.
.	12gg/J	.	.
4D\	12aa/L	4cc\	.
.	12gg/	.	.
.	12ff#/J	.	.
*	*v	*v	*
=45	=45	=45
4G\	12gg\L	.
.	12dd\	.
.	12b\J)	.
4c\ 4e\	(12ee\L	mf
.	12cc\	.
.	12a\J	.
4B\ 4d\	12dd\L	.
.	12b\	.
.	12g\J	.
4A\ 4c\	12cc/L	.
.	12a/	.
.	12f#/J	.
=46	=46	=46
4G\ 4B\	12b/L	.
.	12g/	.
.	12d/J	>
4C/	12cc/L	)
.	12g/	)
.	12e/J	)
4D'/	12b/L	)
.	12g/	)
.	12d/J	)
4DD'/	12a/L	)
.	12g/	)
.	12f#/J	)
=47	=47	=47
4G\	12g/L	)
.	12d/	)
.	12B/J)	]
4C/	(12e/L	p
.	12c/	.
.	12A/J	<
4BB/	12d/L	(
.	12B/	(
.	12d/J	(
4AA/	12c/L	(
.	12A/	(
.	12F#/J	(
*	*clefF4	*clefF4
=48	=48	=48
4GG/	12B\L	(
.	12G\	(
.	12D\J	(
4C/	12c\L	(
.	12G\	(
.	12E\J	(
4D/	12B\L	(
.	12G\	(
.	12D\J	(
4DD'/	12A\L	(
.	12G\	(
.	12F#\J	[
=49	=49	=49
*>A1	*>A1	*>A1
4GG^/	(12G\L)	mf
.	12D\	.
.	12G\J	.
4r	12B\L	.
.	12G\	.
.	12B\J	.
*	*clefG2	*clefG2
2r	12d/L	.
.	12B/	.
.	12d/J	.
.	12g/L	.
.	12d/	.
.	12g/J	.
=50	=50	=50
1r	12b/L	.
.	12g/	.
.	12b/J	.
.	12dd\L	.
.	12b\	.
.	12dd\J	.
.	8gg\L	.
.	8ff\	.
.	8ee\	.
.	8dd\J)	.
=51:|!|:	=51:|!|:	=51:|!|:
*>B	*>B	*>B
4GG/	4r	.
*	*clefG2	*clefG2
4r	(8dd\L	f
.	8b\J	.
2r	4g/)	.
.	(8d/L	.
.	8B/J	.
=52	=52	=52
2.GG/	4G/)	.
.	(8B/L	.
.	8d/J	.
.	8g/L	.
.	8d/	.
4B\	8b/	.
.	8g/J	.
=53	=53	=53
4C/	8f#/L	.
.	8e/	.
4c\	8dd#/	.
.	8ee/J	.
4d'\	4g'/)	.
4D'\	4f#'/	.
=54	=54	=54
2GG/	(4f#/	.
.	4.g/)	.
2B\	.	.
.	(8cc/L	p
.	8b/	.
.	8g/J	.
=55	=55	=55
(4C/	8f#/L	.
.	8e/	.
4c\	8dd#/	.
.	8ee/J	.
4d'\)	4g'/)	.
4D'\	4f#'/	.
=56	=56	=56
2.GG/	4g'/	.
.	(8dd\L	<
.	8b\J)	[
.	([2f/	mf
4A\ 4d\	.	.
=57	=57	=57
2.G#\ 2.d\	8f/L]	.
.	8e/	.
.	8dd/	.
.	8b/J)	.
.	([2f/	.
4A\ 4d\	.	.
=58	=58	=58
2.G#\ 2.d\	8f/L]	.
.	8e/	<
.	8ff/	(
.	8ee/J)	[
.	(8ee\L	>
.	8dd\	)
4G#'\ 4d'\ 4e'\	8cc\	)
.	8b\J)	]
=59	=59	=59
4A\	(8b\	>
.	4cc\)	)
4a\	.	]
.	8ccc'\	mf
4a\	(8aa\L	.
.	8ff#\	.
4a\	8dd#\	.
.	8cc\J	.
=60	=60	=60
4a\	8a#/	>
.	4b\)	)
4g\	.	)
.	8bb'\	)
4g\	(8gg\L	)
.	8ee\	)
4g\	8cc\	)
.	8b\J	]
=61	=61	=61
4g\	8g#/	>
.	4a/)	)
4f#\	.	)
.	8aa'\	)
4f#\	(8ff#\L	)
.	8dd#\	)
4f#\	8cc\	)
.	8a\J	]
=62	=62	=62
4e\	8f#/	>
.	[4.g/)	)
4e\	.	)
4e\	8g/L]	)
.	(8b/	)
(4e\	8ee/	)
.	8b/J)	)
=63	=63	=63
4A\)	4.cc\	)
4AA/	.	)
.	8b\	)
(4AA/	8a/L	)
.	8g/	)
4A\	8f#/	)
.	8e/J	)
=64	=64	=64
.	eq/	)
4B\)	4.d#/	)
4BB/	.	)
.	8c#/	)
4r	4B/	]
*clefG2	*	*
4gg'\	4e'/	p
=65	=65	=65
(8ff#\L	(8d#/L	.
8ee\	8e/	.
8dd#\	8f#/	.
8cc#\J	8g/J	.
4b\)	4a/)	mf
*clefF4	*	*
4BBB'/ 4BB'/	4f#'/	.
=66	=66	=66
2EE/ 2E/	(12b/L	.
.	12a/	.
.	12g/J	.
.	12a/L	.
.	12g/	.
.	12f#/J	.
4e'\	4g'/)	.
.	4e'/	p
*clefG2	*	*
4gg'\	.	.
=67	=67	=67
(8ff#\L	(8d#/L	.
8ee\	8e/	.
8dd#\	8f#/	.
8cc#\J	8g/J	.
4b'\)	4a'/)	.
*clefF4	*	*
4BBB'/ 4BB'/	4f#'/	.
=68	=68	=68
2EE/ 2E/	(12b/L	.
.	12a/	.
.	12g/J	.
.	12a/L	.
.	12g/	.
.	12f#/J	.
4e'\	4g'/)	.
.	4a'/	.
*clefG2	*	*
4ccc'\	.	.
=69	=69	=69
(8bb\L	(8g#/L	<
8aa\	8a/	(
8gg#\	8b/	(
8ff#\J	8cc/J	[
4ee'\)	4dd'\)	mf
*clefF4	*	*
4EE'/ 4E'/	4b'\	.
=70	=70	=70
2AA\ 2A\	(12ee\L	.
.	12dd\	.
.	12cc\J	.
.	12dd\L	.
.	12cc\	.
.	12b\J	.
*clefG2	*	*
4ee'\	4cc'\)	.
4ccc'\	4a'/	p
=71	=71	=71
(8bb\L	(8g#/L	.
8aa\	8a/	.
8gg#\	8b/	.
8ff#\J	8cc/J	.
4ee'\)	4dd'\)	.
*clefF4	*	*
4EE'/ 4E'/	4b'\	.
=72	=72	=72
2.AA\ 2.A\	(12ee\L	<
.	12dd\	(
.	12cc\J	(
.	12dd\L	(
.	12cc\	(
.	12b\J	(
.	4gg#'\)	[
4A\	([4aa^\	mf
=73	=73	=73
4f\	16aa\LL]	p
.	16gg\	.
.	16ff\	.
.	16ee\JJ	.
4f\	16dd\LL	.
.	16cc\	.
.	16b\	.
.	16a\JJ	.
4f\	4aa'\)	.
4f\	4a'/	.
=74	=74	=74
4G\ 4f\	4.g/	.
4G\ 4f\	.	.
.	(8g/	< [
4G\ 4fn\	4ff#\	>
4G\ 4f\	[4gg\)	]
=75	=75	=75
4G\ 4e\	(16gg\LL]	p
.	16ffn\	.
.	16ee\	.
.	16dd\JJ	.
4G\ 4e\	16cc\LL	.
.	16b\	.
.	16a\	.
.	16g\JJ	.
4G\ 4e\	4gg\)	.
4G\ 4e\	4g'/	.
=76	=76	=76
4F\ 4e\	4.f/	.
4F\ 4e\	.	.
.	(8f/	< [
4F\ 4e\	4ee\	>
4F\ 4e\	[4ff\)	]
=77	=77	=77
4F\ 4d\	(16ff\LL]	p
.	16ee\	.
.	16dd\	.
.	16cc\JJ	.
4F\ 4d\	16b/LL	.
.	16a/	.
.	16g/	.
.	16f/JJ	.
4F\ 4d\	4ff'\)	.
4F\ 4d\	4f'/	.
=78	=78	=78
4E\ 4d\	4.e/	.
4E\ 4d\	.	.
.	(8e/	.
4E\ 4d\	4dd#\	>
4E\ 4d\	[4ee\)	]
=79	=79	=79
4E\ 4c\	8ee\L]	p
.	(16ddn\L	.
.	16cc\JJ	<
4E'\ 4c'\	16b/LL	(
.	16a/	(
.	16g/	(
.	16f/JJ	(
4E\ 4c\	16e/LL	(
.	16f/	(
.	16g/	(
.	16a/JJ	(
4E\ 4c\	16b\LL	(
.	16cc\	(
.	32dd\L	(
.	32ee\	(
.	32ff\	(
.	32gg\JJJ	[
=80	=80	=80
4F\ 4f\	(12aa\L)	mf
.	12gg\	.
.	12ff\J	<
4F\ 4e\	12gg\L	(
.	12ff\	(
.	12ee\J	(
4F\ 4d\	12ff\L	(
.	12ee\	(
.	12dd\J	(
4F\ 4c\	12ee\L	(
.	12dd\	(
.	12cc\J	[
=81	=81	=81
4F\ 4f\	12aa\L	f
.	12gg\	>
.	12ff\J	)
4F\ 4e\	12gg\L	)
.	12ff\	)
.	12ee\J	)
4F\ 4d\	12ff\L	)
.	12ee\	)
.	12dd\J	)
4F\ 4c\	12ee\L	)
.	12dd\	)
.	12cc\J)	]
=82	=82	=82
4G\ 4d\	(4.b\	p
4G\ 4d\	.	.
.	8g/)	.
4G\ 4c\ 4e\	(4.cc\	<
4G\ 4c\ 4e\	.	(
.	8g/)	(
=83	=83	=83
4G\ 4B\ 4d\	(4.dd\	(
4G\ 4B\ 4d\	.	(
.	8g/)	(
4G\ 4c\ 4e\	(4.ee\	(
4G\ 4c\ 4e\	.	(
.	8g/)	[
=84	=84	=84
4G\ 4B\ 4d\	(4.gg\	f
4G\ 4B\ 4d\	.	.
.	8g/)	.
4G\ 4c\ 4e\	(4.cc\	mf
4G\ 4c\ 4e\	.	.
.	8g/)	<
=85	=85	=85
4G\ 4B\ 4d\	(4.dd\	(
4G\ 4B\ 4d\	.	(
.	8g/)	(
4G\ 4c\ 4e\	(4.ee\	(
4G\ 4c\ 4e\	.	(
.	8gg\)	(
=86	=86	=86
.	(gq/	[
1GG;	[1g;)	f
=87	=87	=87
2r	30g/LLL]	p
.	30f#/	<
.	30g/	(
.	30a/	(
.	30b/	(
.	30cc/	(
.	30dd/	(
.	30cc/	(
.	30b/	(
.	30a/	(
.	30g/	(
.	30f#/	(
.	30e/	(
.	30d/	(
.	30c/JJJ	(
32B/LLL	2r	(
32A/	.	(
32G/	.	(
32F#/	.	(
32E/	.	(
32D/	.	(
32C/	.	(
32BB/	.	(
32AA/	.	(
32GG/	.	(
32FF#/	.	(
32EE/	.	(
32DD/	.	(
32CC/	.	(
32BBB/	.	(
32AAA/JJJ	.	(
=88	=88	=88
4GGG;/	2r	(
4r	.	(
4r	4r	(
*clefG2	*	*
FFq/	.	[
(8ee\L	4cc'\	mf
8ff\J	.	.
=89	=89	=89
8gg\L	8b\L	.
8aa\	8cc\	.
8gg\	8dd\	.
8aa\J	8ee\J	.
4gg\)	4ff\	.
*clefF4	*	*
4GG/ 4G/	4dd'\	.
=90	=90	=90
2CC/ 2C/	(12gg\L	.
.	12ff\	.
.	12ee\J	.
.	12ff\L	.
.	12ee\	.
.	12dd\J	.
*clefG2	*	*
4gg'\	4ee'\)	.
(8ee\L	4cc'\	p
8ff\J	.	.
=91	=91	=91
8gg\L	8b\L	.
8aa\	8cc\	.
8gg\	8dd\	.
8aa\J	8ee\J	.
4gg'\)	4ff'\	.
*clefF4	*	*
4GG'/ 4G'/	4dd'\	.
=92	=92	=92
2.CC/ 2.C/	(12gg\L	<
.	12ff\	(
.	12ee\J	(
.	12ff\L	(
.	12ee\	(
.	12dd\J	(
.	12ee\L	(
.	12dd\	(
.	12cc\J	(
4E\	12dd\L	(
.	12cc\	(
.	12b\J	[
=93	=93	=93
4F\	12cc\L	f
.	12b\	.
.	12a\J)	.
(4F\	(8gg#\L	.
.	8aa\J	.
4G'\)	4cc'\)	.
4GG'/	4b'\	.
=94	=94	=94
2C/	(4b\	.
.	4cc\	.
4r	4g'/)	.
*clefG2	*	*
(8ee-\L	4cc'\	mf
8ff\J)	.	.
=95	=95	=95
8gg\L	(8b\L	.
8aa-\	8cc\	.
8gg\	8dd\	.
8aa-\J	8ee-'\J	.
4gg'\	4ff'\)	.
*clefF4	*	*
4GG'/ 4G'/	4dd'\	.
=96	=96	=96
2CC/ 2C/	(12gg\L	.
.	12ff\	.
.	12ee-\J	.
.	12ff\L	.
.	12ee-\	.
.	12dd\J	.
*clefG2	*	*
4ee-'\	4cc'\)	.
(8ee-\L	4cc'\	p
8ff\J	.	.
=97	=97	=97
8gg\L	8b\L	.
8aa-\	8cc\	.
8gg\	8dd\	.
8aa-\J	8ee-\J	.
4gg'\)	4ff'\	.
*clefF4	*	*
4GG'/ 4G'/	4dd'\	.
=98	=98	=98
2.CC/ 2.C/	(12gg\L	<
.	12ff\	(
.	12ee-\J	(
.	12ff\L	(
.	12ee-\	(
.	12dd\J	(
.	12ee-\L	(
.	12dd\	(
.	12cc\J	(
4E-'\ 4c'\	12dd\L	(
.	12cc\	(
.	12b-\J	[
=99	=99	=99
*^	*	*
(4c/	2F\	12a-/L	f
.	.	12g/	.
.	.	12f/J	.
4f/	.	12ff\L	.
.	.	12ee-\	.
.	.	12dd\J	.
4e-'/)	2G\	4cc'\)	.
4d'/	.	4bn'\	.
*v	*v	*	*
=100	=100	=100
4C/	(4.cc\	.
4c\	.	.
.	16een\LL	p
.	16dd\JJ	.
*clefG2	*	*
4f/ 4a/	[4cc\)	.
4c/	16cc\LL]	.
.	(16ff\	.
.	16ee\	.
.	16dd\JJ	.
=101	=101	=101
4e/ 4g/	[4cc\)	<
4c/	16cc'\LL]	(
.	(16gg\	(
.	16ee\	(
.	16dd\JJ	(
4f/ 4a/	[4cc\)	(
4c/	16cc\LL]	(
.	(16aa\	(
.	16ee\	(
.	16dd\JJ	(
=102	=102	=102
4e/ 4g/	[4cc\)	(
4c/	16cc\LL]	(
.	(16bb\	(
.	16ee\	(
.	16dd\JJ	(
4f/ 4a/	[4cc\)	(
4c/	16cc\LL]	(
.	(16ccc\	(
.	16ee\	(
.	16dd\JJ	[
=103	=103	=103
2.e/ 2.g/	4cc'\)	f
.	4ccc'\	.
.	(12bb\L	.
.	12aa\	.
.	12gg\J	.
4d/ 4f/	12ff\L	.
.	12ee\	.
.	12dd\J	.
=104	=104	=104
*^	*	*
2r	4c/ 4e/	12ee\L	.
.	.	12ff\	.
.	.	12gg\J	.
*clefF4	*clefF4	*	*
.	2G\	12ff\L	.
.	.	12ee\	.
.	.	12dd\J	.
4F'\ 4f'\	.	12gg\L	.
.	.	12ff\	.
.	.	12ee\J	.
(4e/	4d/)	12dd\L	.
.	.	12cc\	.
.	.	12b\J)	.
*v	*v	*	*
=105	=105	=105
(4C/	(4.cc\	.
4c\)	.	.
.	8ee\)	p
*clefG2	*	*
(4f/ 4a/	(4.cc\	.
4c/	.	.
.	8ff\)	.
=106	=106	=106
4e/ 4g/	4.cc\	<
4c/	.	(
.	8gg\	(
4f/ 4a/	4.cc\	(
4c/	.	(
.	8aa\	(
=107	=107	=107
4e/ 4g/	4.cc\	(
4c/	.	(
.	8bb\	(
4f/ 4a/	4.cc\	(
4c/	.	(
.	8ccc\	[
=108	=108	=108
2.e/ 2.g/	4cc'\	f
.	4ccc'\	.
.	12bb\L	.
.	12aa\	.
.	12gg\J	.
4d/ 4f/	12ff\L	.
.	12ee\	.
.	12dd\J	.
=109	=109	=109
*^	*	*
2r	4c/) 4e/	12ee\L	.
.	.	12ff\	.
.	.	12gg\J	.
*clefF4	*clefF4	*	*
.	2G\	12ff\L	.
.	.	12ee\	.
.	.	12dd\J	.
4F'\ 4f'\	.	12gg\L	.
.	.	12ff\	.
.	.	12ee\J	.
(4e/	4d/)	12dd\L	.
.	.	12cc\	.
.	.	12b\J	.
*v	*v	*	*
=110	=110	=110
16r	16cc\	.
16CC/LL	16r	.
16EE/	8r	.
16GG/JJ	.	.
16C\LL	4r	.
16E\	.	.
16G\	.	.
16c\JJ	.	.
4r	16e/LL	.
.	16g/	.
.	16cc/	.
.	16ee/JJ	.
4r;	4r;	.
=111	=111	=111
*^	*	*
2r	4r	4r	.
.	.	ffq/LL	.
.	.	ggq/JJ	.
.	4F'\ 4f'\	4aa'\	mf
4e/	2G\	(12gg\L	.
.	.	12ff\	.
.	.	12ee\J	.
4d/	.	12dd\L	.
.	.	12cc\	.
.	.	12b\J	.
*v	*v	*	*
=112	=112	=112
16r	16cc\)	<
16C\LL	16r	(
16E-\	8r	(
16G\JJ	.	(
*clefG2	*	*
16c/LL	4r	(
16e-/	.	(
16g/	.	(
16cc/JJ	.	(
4r	16ee-\LL	(
.	16gg\J	(
.	8ccc'\J	(
4r;	4r;	(
*clefF4	*	*
=113	=113	=113
*^	*	*
2r	4r	4r	(
.	.	(bb-q/	[
.	4F'\ 4f'\	4aa-'\)	mf
4e-/	2G\	(12gg\L	.
.	.	12ff\	.
.	.	12ee-\J	.
4d/	.	12dd\L	.
.	.	12cc\	.
.	.	12b\J	.
*v	*v	*	*
=114	=114	=114
16r	16cc\)	<
16CC/LL	16r	(
16EEn/	8r	(
16GG/JJ	.	(
16C\LL	4r	(
16E\	.	(
16G\	.	(
16c\JJ	.	[
4r	16e\LL	f
.	16g\	.
.	32cc\L	.
.	32ee\J	.
.	16gg'\JJ	.
4r;	4r;	.
=115	=115	=115
*^	*	*
2r	4r	4r	.
.	.	ffq/LL	.
.	.	ggq/JJ	.
.	4F'\ 4f'\	4aa'\	f
4e/	2G\	(12gg\L	.
.	.	12ff\	.
.	.	12ee\J	.
4d/	.	12ff\L	.
.	.	12ee\	.
.	.	12dd\J	.
*v	*v	*	*
=116	=116	=116
4C'/	12ee\L	.
.	12ff\	.
.	12gg\J	.
4f\ 4a\	12aa\L	.
.	12ff\	.
.	12dd\J	>
4e\ 4g\	12gg\L	)
.	12ee\	)
.	12cc\J	)
4d\ 4f\	12ff\L	)
.	12dd\	)
.	12b\J	)
=117	=117	=117
*^	*	*
2r	4c\ 4e\	12ee\L	)
.	.	12cc\	)
.	.	12g\J	]
.	4F'\ 4f'\	12ff\L	p
.	.	12cc\	.
.	.	12a\J	.
4e/	2G\	12ee\L	.
.	.	12cc\	.
.	.	12g\J	.
4d/	.	12dd\L	.
.	.	12cc\	.
.	.	12b\J	<
*v	*v	*	*
=118	=118	=118
4C'/	12cc/L	(
.	12g/	(
.	12e/J)	(
4F\ 4A\	(12a/L	(
.	12f/	(
.	12d/J	(
4E\ 4G\	12g/L	(
.	12e/	(
.	12c/J	(
4D\ 4F\	12f/L	(
.	12d/	(
.	12B/J	(
=119	=119	=119
4C\ 4G\	12e/L	(
.	12c/	(
.	12G/J	(
4FF'/ 4F'/	12f/L	(
.	12c/	(
.	12A/J	(
4GG/ 4E/	12e/L	(
.	12c/	(
.	12G/J	(
4GG/ 4D/	12d/L	(
.	12c/	(
.	12B/J	[
=120	=120	=120
*>B1	*>B1	*>B1
4CC^/ 4C^/	(12c/L)	mf
.	12G/	.
.	12c/J	<
4r	12e/L	(
.	12c/	(
.	12e/J	(
2r	12g/L	(
.	12e/	(
.	12g/J	(
.	12cc/L	(
.	12b/	(
.	12a/J)	[
=121:|!	=121:|!	=121:|!
*>B2	*>B2	*>B2
4CC^/ 4C^/	4c^/	f
4r	4r	.
2r	2r	.
==	==	==
*-	*-	*-
!!!ENC: Craig Stuart Sapp
!!!END: 2004/11/06
